X:1624
L:1/8
M:6/8
K:D
 B | AGF EFG | (F/G/A)F D2 B | AGF EFA | B2 A Bcd | AGF EFG | (F/G/A)F D2 f/g/ | afd ecA |1 
 B2 A Bcd :|2 B2 A B2 c |: d2 e fdB | c2 d ecA | def e2 d | Tf2 e fga d2 e fed | cea ecA | 
 gfd ecA |1 B2 A B2 c :|2 B2 A Bcd |: FGF FED | EFE E2 D | FGF FED | BcB Bcd | FGF FED | 
 EFE E2 f/g/ | afd ecA | TB2 A Bcd :: .D2 z/ d/ dcd | .E2 z/ e/ efg | .D2 z/ d/ dcd | TB2 A Bcd | 
 .D2 z/ d/ dcd | .E2 z/ e/ efg | agf edc | TB2 A Bcd :|

